icons/svgs/location-crosshairs-outline.svg

<svg width="24" height="24" viewBox="0 0 24 24" fill="none" xmlns="http://www.w3.org/2000/svg">
<path d="M12 2C12.5078 2 12.9375 2.42969 12.9375 2.9375V4.57812C16.2969 5.00781 18.9922 7.70312 19.4219 11.0625H21.0625C21.5703 11.0625 22 11.4922 22 12C22 12.5469 21.5703 12.9375 21.0625 12.9375H19.4219C18.9922 16.3359 16.2969 19.0312 12.9375 19.4609V21.0625C12.9375 21.6094 12.5078 22 12 22C11.4531 22 11.0625 21.6094 11.0625 21.0625V19.4609C7.66406 19.0312 4.96875 16.3359 4.53906 12.9375H2.9375C2.39062 12.9375 2 12.5469 2 12C2 11.4922 2.39062 11.0625 2.9375 11.0625H4.53906C4.96875 7.70312 7.66406 5.00781 11.0625 4.57812V2.9375C11.0625 2.42969 11.4531 2 12 2ZM6.375 12C6.375 14.0312 7.42969 15.8672 9.1875 16.8828C10.9062 17.8984 13.0547 17.8984 14.8125 16.8828C16.5312 15.8672 17.625 14.0312 17.625 12C17.625 10.0078 16.5312 8.17188 14.8125 7.15625C13.0547 6.14062 10.9062 6.14062 9.1875 7.15625C7.42969 8.17188 6.375 10.0078 6.375 12ZM13.875 12C13.875 11.3359 13.4844 10.75 12.9375 10.3984C12.3516 10.0469 11.6094 10.0469 11.0625 10.3984C10.4766 10.75 10.125 11.3359 10.125 12C10.125 12.7031 10.4766 13.2891 11.0625 13.6406C11.6094 13.9922 12.3516 13.9922 12.9375 13.6406C13.4844 13.2891 13.875 12.7031 13.875 12ZM8.25 12C8.25 10.6719 8.95312 9.46094 10.125 8.75781C11.2578 8.09375 12.7031 8.09375 13.875 8.75781C15.0078 9.46094 15.75 10.6719 15.75 12C15.75 13.3672 15.0078 14.5781 13.875 15.2812C12.7031 15.9453 11.2578 15.9453 10.125 15.2812C8.95312 14.5781 8.25 13.3672 8.25 12Z" fill="black"/>
</svg>

<svg xmlns="http://www.w3.org/2000/svg" width="24" height="24" fill="currentColor" class="icon-location-crosshairs-outline" viewBox="0 0 24 24">
  <mask id="a" width="20" height="20" x="2" y="2" maskUnits="userSpaceOnUse" style="mask-type:alpha">
    <path d="M12 2a.95.95 0 0 1 .938.938v1.64c3.359.43 6.054 3.125 6.484 6.485h1.64A.95.95 0 0 1 22 12c0 .547-.43.938-.937.938h-1.641c-.43 3.398-3.125 6.093-6.485 6.523v1.602c0 .546-.43.937-.937.937-.547 0-.937-.39-.937-.937V19.46a7.545 7.545 0 0 1-6.524-6.523H2.938C2.39 12.938 2 12.547 2 12c0-.508.39-.937.938-.937h1.601c.43-3.36 3.125-6.055 6.524-6.485v-1.64c0-.508.39-.938.937-.938M6.375 12a5.6 5.6 0 0 0 2.813 4.883c1.718 1.015 3.867 1.015 5.624 0 1.72-1.016 2.813-2.852 2.813-4.883 0-1.992-1.094-3.828-2.812-4.844-1.758-1.015-3.907-1.015-5.626 0A5.58 5.58 0 0 0 6.376 12m7.5 0c0-.664-.39-1.25-.937-1.602-.586-.351-1.329-.351-1.876 0-.585.352-.937.938-.937 1.602 0 .703.352 1.29.938 1.64.546.352 1.289.352 1.874 0 .547-.35.938-.937.938-1.64M8.25 12c0-1.328.703-2.54 1.875-3.242 1.133-.664 2.578-.664 3.75 0 1.133.703 1.875 1.914 1.875 3.242 0 1.367-.742 2.578-1.875 3.281-1.172.664-2.617.664-3.75 0C8.953 14.578 8.25 13.367 8.25 12"/>
  </mask>
  <g mask="url(#a)">
    <path d="M0 0h24v24H0z"/>
  </g>
</svg>
